!!!COM: Chopin, Fr&egrave;d&egrave;ric
!!!OTL: Waltz in E major
!!!SCT: B. 44
**kern	**kern
*staff2	*staff1
*Ipiano	*Ipiano
=1-	=1-
*clefF4	*clefF4
*k[f#c#g#d#]	*k[f#c#g#d#]
*M3/4	*M3/4
*	*MM176
4r	4r
4r	4r
4BB/	4B\
=2	=2
2EE/ 2E/	2e\
4BB/	8B\L
.	8B\J
=3	=3
2EE/ 2E/	2e\
4BB/	8B\L
.	8B\J
=4	=4
4EE/ 4E/	4e\
4BB/	8B\L
.	8B\J
4EE/ 4E/	4e\
=5	=5
4BB/	8B\L
.	8B\J
*	*clefG2
4EE/ 4E/	4e/
4BB/	4B/
=6	=6
4E\	4e/
8F#\L	8f#/L
8G#\J	8g#/J
8A\L	8a/L
8B\J	8b/J
=7	=7
*^	*^
*	*^	*	*^
2c#/	4r	4r	2cc#/	4r	4r
.	4r	2D#/	.	4r	2f#/ 2a/
*	*v	*v	*	*	*
*	*	*	*v	*v
4r	4B\	4r	4b\
*v	*v	*	*
*	*v	*v
=8	=8
!!linebreak:original
*^	*^
*	*^	*	*^
2c#/	4r	4r	2cc#/	4r	4r
.	4r	2E/	.	4r	2e/ 2g#/
*	*v	*v	*	*	*
*	*	*	*v	*v
4r	4B\	4r	4b\
*v	*v	*	*
*	*v	*v
=9	=9
!!linebreak:original
*^	*^
*	*^	*	*^
2c#/	4r	4r	2cc#/	4r	4r
.	4r	2D#/	.	4r	2f#/ 2a/
*	*v	*v	*	*	*
*	*	*	*v	*v
4r	4B\	4r	[8.b\L
.	.	.	32b\LL]
.	.	.	32b\JJJ
*v	*v	*	*
*	*v	*v
=10	=10
4E\	4ee\ 4gg#\
4E\ 4e\	4dd#\ 4ff#\
4E\ 4e\	4ddn\ 4gg#\
=11	=11
4AA/	2cc#\ 2bb\
4A\ 4e\	.
4A\ 4e\	4cc#\ 4aa\
=12	=12
4AA/	4.b#\ 4.ee\
4A\ 4e\	.
.	8b#\ 8ff#\
4A\ 4e\	4b#\ 4ee\
=13	=13
*^	*
4r	2.E\	2.b\ 2.gg#\
4B/ 4e/	.	.
4B/ 4e/	.	.
=14	=14	=14
4r	2.F#\	4.a#\ 4.cc#\
4c#/ 4e/	.	.
.	.	8a#\ 8dd#\
4c#/ 4e/	.	4a#\ 4cc#\
*v	*v	*
=15	=15
4BB/	2a\ 2gg#\
4F#\ 4B\ 4d#\	.
4F#\ 4B\ 4d#\	4a\ 4ff#\
=16	=16
4BB/	4a/ 4b/
4F#\ 4B\ 4d#\	4a\ 4dd#\
4F#\ 4B\ 4d#\	4a\ 4ee\
=17	=17
!!linebreak:original
4BB/	4a\ 4ee#\
4F#\ 4B\ 4d#\	4a\ 4ff#\
4F#\ 4B\ 4d#\	4a\ 4ggn\
=18	=18
4EE/ 4E/	4g#\ 4ee\ 4gg#\
4E\ 4e\	4dd#\ 4ff#\
4E\ 4e\	4ddn\ 4gg#\
=19	=19
4AA\ 4A\	2cc#\ 2bb\
4A\ 4e\	.
4A\ 4e\	4cc#\ 4aa\
=20	=20
4AA/	4.b#\ 4.ee\
4A\ 4e\	.
.	8b#\ 8ff#\
4A\ 4e\	4b#\ 4ee\
=21	=21
*^	*
4r	2.E\	2.b\ 2.gg#\
4B/ 4e/	.	.
4B/ 4e/	.	.
=22	=22	=22
4r	2.F#\	4.a#\ 4.cc#\
4c#/ 4e/	.	.
.	.	8a#\ 8dd#\
4c#/ 4e/	.	4a#\ 4cc#\
*v	*v	*
=23	=23
4BB/	2a\ 2gg#\
4F#\ 4B\ 4d#\	.
4F#\ 4B\ 4d#\	4a\ 4ff#\
=24	=24
!!linebreak:original
*	*^
4BB/	8r	4a\ 4b\
.	16r	.
.	32r	.
.	32dd#/	.
4F#\ 4B\ 4d#\	4a/ 4cc#/	4r
4F#\ 4B\ 4d#\	4a/ 4b/	4r
*	*v	*v
=25	=25
!!pagebreak:original
4E\ 4B\ 4e\	4g#\ 4ee\
4EE/	4r
4r	4d#/ 4dd#/
=26	=26
*^	*
4r	2.G#\	2d#/ 2dd#/
4B/ 4d#/	.	.
4B/ 4d#/	.	4g#\ 4gg#\
*v	*v	*
=27	=27
4C#/	2g#\ 2gg#\
4G#\ 4c#\ 4e\	.
4G#\ 4c#\ 4e\	4a#\ 4aa#\
=28	=28
4GG#/	2cc#\ 2ccc#\
4G#\ 4B\	.
4BB/	4b\ 4bb\
=29	=29
2G#/ 2B/	2.r
4D#/	.
=30	=30
4GGn/	16eee\LL
.	16ddd#\
.	16eee\
.	16ddd#\JJ
4D#\ 4A#\ 4c#\	4ccc#\
4D#\ 4A#\ 4c#\	4aaa#'\
=31	=31
4GG#/	16ddd#\LL
.	16ccc#\
.	16ddd#\
.	16ccc#\JJ
4D#\ 4G#\ 4B\	4bb\
4D#\ 4G#\ 4B\	4ggg#'\
=32	=32
!!linebreak:original
4DD#/	16ccc#\LL
.	16bb\
.	16ccc#\
.	16bb\JJ
4D#\ 4Gn\ 4c#\	4aa#\
4D#\ 4G\ 4c#\	4ddd#'\
=33	=33
4GG#/	4.aa#\
4D#\ 4G#\ 4B\	.
.	8gg#\
4D#\ 4G#\ 4B\	8dd#\L
.	8b\J
=34	=34
*^	*
4r	2.G#\	4g#/
4B/ 4d#/	.	4r
4B/ 4d#/	.	4g#\ 4gg#\
*v	*v	*
=35	=35
4C#/	2g#\ 2gg#\
4G#\ 4c#\ 4e\	.
4G#\ 4c#\ 4e\	4a#\ 4aa#\
=36	=36
2GG#/	2cc#\ 2ccc#\
4r	4b\ 4bb\
=37	=37
4r	2.r
2G#/ 2B/	.
=38	=38
!!linebreak:original
4GGn/	16eee\LL
.	16ddd#\
.	16eee\
.	16ddd#\JJ
4A#\ 4c#\	4ccc#\
4D#\	4aaa#'\
=39	=39
!!linebreak:original
4GG#/	16ddd#\LL
.	16ccc#\
.	16ddd#\
.	16ccc#\JJ
4G#\ 4B\	4bb\
4D#\	4ggg#'\
=40	=40
4DD#/	16ccc#\LL
.	16bb\
.	16ccc#\
.	16bb\JJ
4Gn\ 4c#\	4aa#\
4D#\	4ddd#'\
=41	=41
4GG#/	4gg#\
4D#\ 4B\	8gg#'\L
.	8gg#'\J
4FF#/	4gg#\
=42	=42
4EE/	4ee\ 4gg#\
4E\ 4e\	4dd#\ 4ff#\
4E\ 4e\	4ddn\ 4gg#\
=43	=43
4AA/	2cc#\ 2bb\
4A\ 4e\	.
4A\ 4e\	4cc#\ 4aa\
=44	=44
4AA/	4.b#\ 4.ee\
4A\ 4e\	.
.	8b#\ 8ff#\
4A\ 4e\	4b#\ 4ee\
=45	=45
!!linebreak:original
*^	*
4r	2.E\	2.b\ 2.gg#\
4B/ 4e/	.	.
4B/ 4e/	.	.
*v	*v	*
=46	=46
!!pagebreak:original
*^	*
4r	2.F#\	4.a#\ 4.cc#\
4c#/ 4e/	.	.
.	.	8a#\ 8dd#\
4c#/ 4e/	.	4a#\ 4cc#\
*v	*v	*
=47	=47
4BB/	2a\ 2gg#\
4F#\ 4B\ 4d#\	.
4F#\ 4B\ 4d#\	4a\ 4ff#\
=48	=48
4BB/	4a/ 4b/
4F#\ 4B\ 4d#\	4a\ 4dd#\
4F#\ 4B\ 4d#\	4a\ 4ee\
=49	=49
4BB/	4a\ 4ee#\
4F#\ 4B\ 4d#\	4a\ 4ff#\
4F#\ 4B\ 4d#\	4a\ 4ggn\
=50	=50
4EE/ 4E/	4g#\ 4ee\ 4gg#\
4E\ 4e\	4dd#\ 4ff#\
4E\ 4e\	4ddn\ 4gg#\
=51	=51
4AA\ 4A\	2cc#\ 2bb\
4A\ 4e\	.
4A\ 4e\	4cc#\ 4aa\
=52	=52
4AA/	4.b#\ 4.ee\
4A\ 4e\	.
.	8b#\ 8ff#\
4A\ 4e\	4b#\ 4ee\
=53	=53
*^	*
4r	2.E\	2.b\ 2.gg#\
4B/ 4e/	.	.
4B/ 4e/	.	.
*v	*v	*
=54	=54
!!linebreak:original
*^	*
4r	2.F#\	4.a#\ 4.cc#\
4c#/ 4e/	.	.
.	.	8a#\ 8dd#\
4c#/ 4e/	.	4a#\ 4cc#\
*v	*v	*
=55	=55
4BB/	2a\ 2gg#\
4F#\ 4B\ 4d#\	.
4F#\ 4B\ 4d#\	4a\ 4ff#\
=56	=56
*	*^
4BB/	8r	4a\ 4b\
.	16r	.
.	32r	.
.	32dd#/	.
4F#\ 4B\ 4d#\	4a/ 4cc#/	4r
4F#\ 4B\ 4d#\	4a/ 4b/	4r
*	*v	*v
=57	=57
4E\ 4B\ 4e\	4g#\ 4ee\
4EE/	4r
4r	[4e/
=58	=58
4GG#'/	4e/]
4dn\	8d#/L
.	8e/J
4E\	8f#/L
.	8e/J
=59	=59
4AA'/	4e/
4c#\	8a/L
.	8b/J
4E\	4cc#\
=60	=60
!!linebreak:original
4GG#'/	8a#/L
.	8b/J
4dn\	8cc#\L
.	8b\J
4E\	8.ff#'\L
.	16ee\Jk
=61	=61
!!linebreak:original
4AA'/	4ee\
4c#\	8aa\L
.	8bb\J
4E\	4ccc#\
=62	=62
4EE'/	4ccc#\
4e\	8ddn\L
.	8ccc#\J
4E\	4bb'\
=63	=63
4AA'/	4aa\
4e\	8cc#\L
.	8bb\J
4A\	4aa'\
=64	=64
4BB'/	4ff#\
4d#\	8a\L
.	8gg#\J
4B\	4ff#'\
=65	=65
4E'\	4ee\
4e\	8g#\L
.	8ff#\J
4B\	4ee'\
=66	=66
4EE'/	4e/
4dn\	8d#/L
.	8e/J
4E\	8f#/L
.	8e/J
=67	=67
4AA'/	4e/
4c#\	8a/L
.	8b/J
4E\	4cc#\
=68	=68
!!linebreak:original
4GG#'/	8a#/L
.	8b/J
4dn\	8cc#\L
.	8b\J
4E\	8ddn\L
.	8ff#\J
=69	=69
4AA'/	8ff#\L
.	8ee\J
4c#\	8aa\L
.	8bb\J
4E\	[8.ccc#\L
.	32ccc#\LL]
.	32ccc#\JJJ
=70	=70
*	*^
4EE#'/	4cccc#/	8r
.	.	16r
.	.	32ggg#\LLL
.	.	32aaa\JJJ
4B\	4r	4ggg#\
4C#/	4r	8gggn\L
.	.	8ggg#\J
*	*v	*v
=71	=71
4FF#'/	8bbb\L
.	8aaa\J
4A\	8ccc#\L
.	8bb#\J
4D#\	8ggg#\L
.	8fff#\J
=72	=72
!!linebreak:original
*^	*
4r	2E\	8eee\L
.	.	8aa\J
4e/	.	8dddn\L
.	.	8ccc#\J
4G#/ 4dn/	4r	8ee\L
.	.	8bb\J
*v	*v	*
=73	=73
4A\ 4c#\	4aa\
4AA/	4r
4r	4r
=74	=74
4E\	4e/
8F#\L	8f#/L
8G#\J	8g#/J
8A\L	8a/L
8B\J	8b/J
=75	=75
*^	*^
*	*^	*	*^
2c#/	4r	4r	2cc#/	4r	4r
.	4r	2D#/	.	4r	2f#/ 2a/
*	*v	*v	*	*	*
*	*	*	*v	*v
4r	4B\	4r	4b\
*v	*v	*	*
*	*v	*v
=76	=76
*^	*^
*	*^	*	*^
2c#/	4r	4r	2cc#/	4r	4r
.	4r	2E/	.	4r	2e/ 2g#/
*	*v	*v	*	*	*
*	*	*	*v	*v
4r	4B\	4r	4b\
*v	*v	*	*
*	*v	*v
=77	=77
*^	*^
*	*^	*	*^
2c#/	4r	4r	2cc#/	4r	4r
.	4r	2D#/	.	4r	2f#/ 2a/
*	*v	*v	*	*	*
*	*	*	*v	*v
4r	4B\	4r	[8.b\L
.	.	.	32b\LL]
.	.	.	32b\JJJ
*v	*v	*	*
*	*v	*v
=78	=78
4E\	4ee\ 4gg#\
4E\ 4e\	4dd#\ 4ff#\
4E\ 4e\	4ddn\ 4gg#\
=79	=79
!!pagebreak:original
4AA/	2cc#\ 2bb\
4A\ 4e\	.
4A\ 4e\	4cc#\ 4aa\
=80	=80
!!linebreak:original
4AA/	4.b#\ 4.ee\
4A\ 4e\	.
.	8b#\ 8ff#\
4A\ 4e\	4b#\ 4ee\
=81	=81
*^	*
4r	2.E\	2.b\ 2.gg#\
4B/ 4e/	.	.
4B/ 4e/	.	.
=82	=82	=82
4r	2.F#\	4.a#\ 4.cc#\
4c#/ 4e/	.	.
.	.	8a#\ 8dd#\
4c#/ 4e/	.	4a#\ 4cc#\
*v	*v	*
=83	=83
4BB/	2a\ 2gg#\
4F#\ 4B\ 4d#\	.
4F#\ 4B\ 4d#\	4a\ 4ff#\
=84	=84
4BB/	4a/ 4b/
4F#\ 4B\ 4d#\	4a\ 4dd#\
4F#\ 4B\ 4d#\	4a\ 4ee\
=85	=85
4BB/	4a\ 4ee#\
4F#\ 4B\ 4d#\	4a\ 4ff#\
4F#\ 4B\ 4d#\	4a\ 4ggn\
=86	=86
4EE/ 4E/	4g#\ 4ee\ 4gg#\
4E\ 4e\	4dd#\ 4ff#\
4E\ 4e\	4ddn\ 4gg#\
=87	=87
4AA\ 4A\	2cc#\ 2bb\
4A\ 4e\	.
4A\ 4e\	4cc#\ 4aa\
=88	=88
!!pagebreak:original
4AA/	4.b#\ 4.ee\
4A\ 4e\	.
.	8b#\ 8ff#\
4A\ 4e\	4b#\ 4ee\
=89	=89
*^	*
4r	2.E\	2.b\ 2.gg#\
4B/ 4e/	.	.
4B/ 4e/	.	.
=90	=90	=90
4r	2.F#\	4.a#\ 4.cc#\
4c#/ 4e/	.	.
.	.	8a#\ 8dd#\
4c#/ 4e/	.	4a#\ 4cc#\
*v	*v	*
=91	=91
4BB/	2a\ 2gg#\
4F#\ 4B\ 4d#\	.
4F#\ 4B\ 4d#\	4a\ 4ff#\
=92	=92
*	*^
4BB/	8r	4a\ 4b\
.	16r	.
.	32r	.
.	32dd#/	.
4F#\ 4B\ 4d#\	4a/ 4cc#/	4r
4F#\ 4B\ 4d#\	4a/ 4b/	4r
*	*v	*v
=93	=93
4E\ 4B\ 4e\	4g#\ 4ee\
4EE/	4r
4r	4d#/ 4dd#/
=94	=94
*^	*
4r	2.G#\	2d#/ 2dd#/
4B/ 4d#/	.	.
4B/ 4d#/	.	4g#\ 4gg#\
*v	*v	*
=95	=95
!!linebreak:original
4C#/	2g#\ 2gg#\
4G#\ 4c#\ 4e\	.
4G#\ 4c#\ 4e\	4a#\ 4aa#\
=96	=96
!!linebreak:original
4GG#/	2cc#\ 2ccc#\
4G#\ 4B\	.
4BB/	4b\ 4bb\
=97	=97
2G#/ 2B/	2.r
4D#/	.
=98	=98
4GGn/	16eee\LL
.	16ddd#\
.	16eee\
.	16ddd#\JJ
4D#\ 4A#\ 4c#\	4ccc#\
4D#\ 4A#\ 4c#\	4aaa#'\
=99	=99
4GG#/	16ddd#\LL
.	16ccc#\
.	16ddd#\
.	16ccc#\JJ
4D#\ 4G#\ 4B\	4bb\
4D#\ 4G#\ 4B\	4ggg#'\
=100	=100
4DD#/	16ccc#\LL
.	16bb\
.	16ccc#\
.	16bb\JJ
4D#\ 4Gn\ 4c#\	4aa#\
4D#\ 4G\ 4c#\	4ddd#'\
=101	=101
4GG#/	4.aa#\
4D#\ 4G#\ 4B\	.
.	8gg#\
4D#\ 4G#\ 4B\	8dd#\L
.	8b\J
=102	=102
!!linebreak:original
*^	*
4r	2.G#\	4g#/
4B/ 4d#/	.	4r
4B/ 4d#/	.	4g#\ 4gg#\
*v	*v	*
=103	=103
4C#/	2g#\ 2gg#\
4G#\ 4c#\ 4e\	.
4G#\ 4c#\ 4e\	4a#\ 4aa#\
=104	=104
2G#/ 2B/	2cc#\ 2ccc#\
4BB\	4b\ 4bb\
=105	=105
2G#/ 2B/	2.r
4D#/	.
=106	=106
4GGn/	16eee\LL
.	16ddd#\
.	16eee\
.	16ddd#\JJ
4A#\ 4c#\	4ccc#\
4D#\	4aaa#'\
=107	=107
4GG#/	16ddd#\LL
.	16ccc#\
.	16ddd#\
.	16ccc#\JJ
4G#\ 4B\	4bb\
4D#\	4ggg#'\
=108	=108
!!linebreak:original
4DD#/	16ccc#\LL
.	16bb\
.	16ccc#\
.	16bb\JJ
4Gn\ 4c#\	4aa#\
4D#\	4ddd#'\
=109	=109
4GG#/	4gg#\
4D#\ 4B\	8gg#'\L
.	8gg#'\J
4FF#/	4gg#\
=110	=110
4EE/	4ee\ 4gg#\
4E\ 4e\	4dd#\ 4ff#\
4E\ 4e\	4ddn\ 4gg#\
=111	=111
4AA/	2cc#\ 2bb\
4A\ 4e\	.
4A\ 4e\	4cc#\ 4aa\
=112	=112
4AA/	4.b#\ 4.ee\
4A\ 4e\	.
.	8b#\ 8ff#\
4A\ 4e\	4b#\ 4ee\
=113	=113
*^	*
4r	2.E\	2.b\ 2.gg#\
4B/ 4e/	.	.
4B/ 4e/	.	.
=114	=114	=114
4r	2.F#\	4.a#\ 4.cc#\
4c#/ 4e/	.	.
.	.	8a#\ 8dd#\
4c#/ 4e/	.	4a#\ 4cc#\
*v	*v	*
=115	=115
!!linebreak:original
4BB/	2a\ 2gg#\
4F#\ 4B\ 4d#\	.
4F#\ 4B\ 4d#\	4a\ 4ff#\
=116	=116
!!pagebreak:original
4BB/	4a/ 4b/
4F#\ 4B\ 4d#\	4a\ 4dd#\
4F#\ 4B\ 4d#\	4a\ 4ee\
=117	=117
4BB/	4a\ 4ee#\
4F#\ 4B\ 4d#\	4a\ 4ff#\
4F#\ 4B\ 4d#\	4a\ 4ggn\
=118	=118
4EE/ 4E/	4g#\ 4ee\ 4gg#\
4E\ 4e\	4dd#\ 4ff#\
4E\ 4e\	4ddn\ 4gg#\
=119	=119
4AA\ 4A\	2cc#\ 2bb\
4A\ 4e\	.
4A\ 4e\	4cc#\ 4aa\
=120	=120
4AA/	4.b#\ 4.ee\
4A\ 4e\	.
.	8b#\ 8ff#\
4A\ 4e\	4b#\ 4ee\
=121	=121
*^	*
4r	2.E\	2.b\ 2.gg#\
4B/ 4e/	.	.
4B/ 4e/	.	.
=122	=122	=122
4r	2.F#\	4.a#\ 4.cc#\
4c#/ 4e/	.	.
.	.	8a#\ 8dd#\
4c#/ 4e/	.	4a#\ 4cc#\
*v	*v	*
=123	=123
4BB/	2a\ 2gg#\
4F#\ 4B\ 4d#\	.
4F#\ 4B\ 4d#\	4a\ 4ff#\
=124	=124
!!linebreak:original
*	*MM160
*	*^
4BB/	8r	4a\ 4b\
.	16r	.
.	32r	.
.	32dd#/	.
*	*v	*v
*	*MM144
*	*^
4F#\ 4B\ 4d#\	4a/ 4cc#/	4r
*	*v	*v
*	*MM112
*	*^
4F#\ 4B\ 4d#\	4a/ 4b/	4r
*	*v	*v
=125	=125
*	*MM69
4E\ 4B\ 4e\	4g#\ 4ee\
4EE/	4r
4r	4r
==	==
*-	*-
